svg/fluentui-system-icons/ic_fluent_star_add_16_filled.svg

<svg width="16" height="16" viewBox="0 0 16 16" fill="none" xmlns="http://www.w3.org/2000/svg">
<path d="M8.80802 2.1013C8.47789 1.43238 7.52403 1.43238 7.1939 2.1013L5.67281 5.18335L2.27156 5.67758C1.53336 5.78485 1.23861 6.69203 1.77277 7.21271L4.23394 9.61175L3.65294 12.9993C3.52684 13.7345 4.29853 14.2951 4.95879 13.948L5.86971 13.4691C5.31927 12.6126 5 11.5934 5 10.4996C5 7.54876 7.32389 5.14065 10.2414 5.00561L8.80802 2.1013ZM15 10.4996C15 12.9849 12.9853 14.9996 10.5 14.9996C8.01472 14.9996 6 12.9849 6 10.4996C6 8.01435 8.01472 5.99963 10.5 5.99963C12.9853 5.99963 15 8.01435 15 10.4996ZM11 8.49963C11 8.22349 10.7761 7.99963 10.5 7.99963C10.2239 7.99963 10 8.22349 10 8.49963V9.99963H8.5C8.22386 9.99963 8 10.2235 8 10.4996C8 10.7758 8.22386 10.9996 8.5 10.9996H10V12.4996C10 12.7758 10.2239 12.9996 10.5 12.9996C10.7761 12.9996 11 12.7758 11 12.4996V10.9996H12.5C12.7761 10.9996 13 10.7758 13 10.4996C13 10.2235 12.7761 9.99963 12.5 9.99963H11V8.49963Z" fill="#212121"/>
</svg>

<svg xmlns="http://www.w3.org/2000/svg" width="16" height="16"><path d="M8.808 2.101a.9.9 0 0 0-1.614 0L5.673 5.183l-3.401.495a.9.9 0 0 0-.5 1.535l2.462 2.399-.581 3.387a.9.9 0 0 0 1.306.949l.91-.479a5.5 5.5 0 0 1 4.372-8.463L8.808 2.1ZM15 10.5a4.5 4.5 0 1 1-9 0 4.5 4.5 0 0 1 9 0Zm-4-2a.5.5 0 0 0-1 0V10H8.5a.5.5 0 0 0 0 1H10v1.5a.5.5 0 1 0 1 0V11h1.5a.5.5 0 1 0 0-1H11V8.5Z"/></svg>
